X:91 
T: Laune Rangers, The  
B:RC1.187
F:file ID roche.1/091lrr
Z:bill@capeirish.com
N:". . .ride again!" (sorry)
Q:180
L:1/8
M:4/4
R:reel
K:D
P:BB edited version
"reel"
(3ABc|dcdf edcB|A2 (3FED FAAB|dcdf ecdB|BAFA BE :|
(3FGA|Beed egfe|defg afdf|e2ef g2fe|dBA=c BEED|
Beed egfe|defg afdf|gfge fgfe|dBA=c BEE2|]

